X:1
T:Title
%%score { ( 1 3 4 ) | ( 2 5 6 ) }
L:1/8
Q:1/4=100
M:6/8
K:A
V:1 treble nm="Grand Piano"
V:3 treble 
V:4 treble 
V:2 bass 
V:5 bass 
V:6 bass 
V:1
 [CE]>[CE][CE] [CE] [CE]2 | F>FF F F2 | G>GG GF[EG] | [EA][EA][EB] [Ec]3 | %4
w: Ira~D.~Sankey * * * *||||
 [CE]>[CE][CE] [CE] [CE]2 | F>FF F F2 | [EG]>[EG][EG] [EA][EA][FB] | %7
w: |||
[M:27/32] z/ c/4-c/4-c/4-c/4-c/4-c/4-c/-<c/ z/4 z/4 z/4 z/4 z/4 z/4 z/4 z/4 z/4 z/4 z/4 z/4 z/4 z/ | %8
w: |
[M:3/4] (3:2:2c2 B z e3 | (3:2:2[Ec]2 [DB] z B3 | (3:2:2B2 ^A z d2 d | %11
w: |||
 (7:8:7d3/4c-c/8B3/4[Ec]3/8- [Ec]2- [Ec]/4 | (3:2:2c2 B z e3 | z2 A-A/4 z/4 z/ z2 | %14
w: |||
[M:27/32] B/4-B/-<B/ z/4 z/ F/4-F/-<F/ z/4 A/4-A/4-A/4-A/4-A/4-A/-<A/ z/4 z/4 z/ | %15
w: |
 z/4 z/4 z/ c/4-c/4-c/4-c/4-c/4-c/4-c/-<c/ z/4 z/4 z/4 z/4 z/4 z/4 z/4 z/4 z/4 z/4 z/4 z/ |] %16
w: |
V:2
 [A,,A,]>[A,,A,][A,,A,] [A,,A,] [A,,A,]2 | [D,A,D]>[D,A,D][D,A,D] [D,A,D] [D,A,D]2 | %2
 [E,D]>[E,B,D][E,B,D] [E,B,D][E,A,D][D,B,] | [C,A,][C,A,][B,,G,] [A,,A,]3 | %4
 [A,,A,]>[A,,A,][A,,A,] [A,,A,] [A,,A,]2 | [D,A,D]>[D,A,D][D,A,D] [D,A,D] [D,A,D]2 | %6
 [D,B,]>[D,B,][D,B,] [C,A,][C,A,][D,A,] | %7
[M:27/32] [E,A,E]/[A,E]/4-[A,E]/4-[A,E]/4-[A,E]/4-[A,E]/4-[A,E]/4-[A,E]/-<[A,E]/ z/ [A,,A,]/4-[A,,A,]/4-[A,,A,]/4-[A,,A,]/4-[A,,A,]/4-[A,,A,]/4-[A,,A,]/4-[A,,A,]/4-[A,,A,]/4-[A,,A,]/-<[A,,A,]/ | %8
[M:3/4] (3:2:2[A,E]2 [E,G,E][K:treble] E-[A,-C-EA-]/<[A,CA]/- [A,CA]2 | %9
 (3:2:2[A,,A,]2 [A,,E,] A,,-[A,,E,-G,-E-]/<[E,G,E]/- [E,G,E]2 | %10
 (3:2:2[E,G,E]2 [E,^E,E] [=E,E] [E,B,E]2 [E,B,E] | %11
 (7:8:7[E,B,E]3/4[E,A,E]-[E,A,E]/8[E,G,E]3/4[A,,A,]3/8- [A,,A,]2- [A,,A,]/4 | %12
 (3:2:2[A,E]2 [E,G,E] E [G,B,E]3 | (3:2:2[F,C]2 [F,B,C] z2 z2 | %14
[M:27/32] [D,F,]/-<[D,F,]/D,/-<D,/A,/-<A,/A,/-[A,C-]/4C/4-C/4-C/4-C/-<C/-[E,-A,-CE-]/4[E,A,E]/-<[E,A,E]/ | %15
 z/4 z/4 z/ E/4-E/4-E/4-E/4-E/4-E/4-E/-<E/ z/4 z/4 z/4 z/4 z/4 z/4 z/4 z/4 z/4 z/4 z/4 z/ |] %16
V:3
 x6 | x6 | x6 | x6 | x6 | x6 | x6 | %7
[M:27/32] z/4 z/4 z/4 z/4 z/4 z/4 z/4 z/4 z/ B/4-B/4-B/-<B/ z/4 z/4 z/4 z/4 z/4 z/4 z/4 z/4 z/4 z/ | %8
[M:3/4] z2 c-c/4 z/4 z/ z2 | z2 [CA]-[CA]/4 z/4 z/ z2 | z2 B-B/4 z/4 z/ z2 | x6 | %12
 z2 c-c/4 z/4 z/ z2 | (3:2:2A2 G z2 z2 | %14
[M:27/32] F/-<F/F/-<F/ z/4 z/4 z/4 z/4 z/4 z/4 z/4 z/4 z/4 z/4 z/4 z/4 z/ c/4-c/-<c/ | %15
 z/4 z/4 z/4 z/4 z/4 z/4 z/4 z/4 z/4 z/4 z/ B3/4 z/4 z/4 z/4 z/4 z/4 z/4 z/4 z/4 z/4 z/4 z/ |] %16
V:4
 x6 | x6 | x6 | x6 | x6 | x6 | x6 | %7
[M:27/32] c/ z/4 z/4 z/4 z/4 z/4 z/4 z/4 z/4 z/4 z/4 z/ [CA]/4-[CA]/4-[CA]/4-[CA]/4-[CA]/4-[CA]/4-[CA]/4-[CA]/4-[CA]/4-[CA]/-<[CA]/ | %8
[M:3/4] x6 | x6 | x6 | x6 | x6 | z2 z [^Ec]3- | %14
[M:27/32] [Ec]3/4 z/4 A/4-A/-<A/ z/4 z/ =E3/4 z/4 z/4 z/4 z/4 z/4 z/4 z/4 z/4 z/4 z/4 z/ | %15
 B/-<B/ z/4 z/4 z/4 z/4 z/4 z/4 z/4 z/4 z/ [CA]/4-[CA]/4-[CA]/4-[CA]/4-[CA]/4-[CA]/4-[CA]/4-[CA]/4-[CA]/4-[CA]/-<[CA]/ |] %16
V:5
 x6 | x6 | x6 | x6 | x6 | x6 | x6 | %7
[M:27/32] z/ E,/4-E,/4-E,/4-E,/4-E,/-<E,/[E,G,D]/4-[E,G,D]/4-[E,G,D]/-<[E,G,D]/ z/4 z/4 z/4 z/4 z/4 z/4 z/4 z/4 z/4 z/ | %8
[M:3/4] z2[K:treble] .A,2 z2 | z2 .E,2 z2 | z2 G,-G,/4 z/4 z/ z2 | x6 | z2 A,-A,/4 z/4 z/ z2 | %13
 z2 [F,A,C]-[F,A,C]/4 z/4 z/ z2 | %14
[M:27/32] z/4 z/4 z/ F,/4-F,/-<F,/ z/4 z/ [E,C]/[E,E]/4-[E,E]/4-[E,E]/4-[E,E]/4-[E,E]/-<[E,E]/ z/4 z/4 z/4 z/ | %15
 z/4 z/4 z/4 z/4 z/4 z/4 z/4 z/4 z/4 z/4 z/ [E,G,D]3/4 z/4 z/4 z/4 z/4 z/4 z/4 z/4 z/4 z/4 z/4 z/ |] %16
V:6
 x6 | x6 | x6 | x6 | x6 | x6 | x6 |[M:27/32] x27/4 |[M:3/4] x2[K:treble] x4 | x6 | x6 | x6 | x6 | %13
 z2 z [C,G,]3- | %14
[M:27/32] [C,G,]3/4 z/4 z/4 z/4 z/ [D,D]/4-[D,D]/-<[D,D]/ z/4 z/4 z/4 z/4 z/4 z/4 z/4 z/4 z/4 z/4 z/4 z/4 z/ | %15
 [E,G,E]/-<[E,G,E]/[E,G,]/4-[E,G,]/4-[E,G,]/4-[E,G,]/4-[E,G,]/-<[E,G,]/ z/ [A,,A,]/4-[A,,A,]/4-[A,,A,]/4-[A,,A,]/4-[A,,A,]/4-[A,,A,]/4-[A,,A,]/4-[A,,A,]/4-[A,,A,]/4-[A,,A,]/-<[A,,A,]/ |] %16

